assets/icon-paw-print.svg

<svg
  class="icon icon-accordion icon-paw-print"

  focusable="false"
  xmlns="http://www.w3.org/2000/svg"


  viewBox="0 0 20 20"
>
  <path d="M4.34392 7.16368C4.01559 6.62807 3.5917 6.36975 3.21922 6.39495C2.73316 6.42785 2.45795 6.58174 2.30073 6.74933C2.14054 6.92007 2.05037 7.16105 2.04138 7.46193C2.02254 8.09186 2.36617 8.81926 2.81281 9.17768C3.09955 9.40778 3.55864 9.54479 3.95773 9.4945C4.32171 9.44864 4.59366 9.26185 4.68772 8.84687C4.80166 8.34416 4.66637 7.68972 4.34392 7.16368ZM5.19648 6.64106C5.62446 7.33924 5.84642 8.25859 5.66298 9.06792C5.45965 9.96498 4.78605 10.398 4.08274 10.4867C3.41454 10.5708 2.68459 10.357 2.18694 9.95761C1.49068 9.39888 1.0138 8.36924 1.04182 7.43204C1.05626 6.94936 1.20637 6.45426 1.57143 6.06513C1.93946 5.67284 2.47446 5.44307 3.15171 5.39724C4.05461 5.33615 4.77437 5.95246 5.19648 6.64106Z" />
  <path d="M7.14946 1.68176C6.9184 1.59371 6.62261 1.70407 6.49559 1.9565C6.22812 2.48805 6.083 3.36616 6.18378 4.10853C6.35261 5.35217 7.25625 5.71812 7.70271 5.65305C7.86816 5.62894 8.12274 5.47614 8.31293 5.14915C8.49419 4.83751 8.59089 4.40403 8.47246 3.90187C8.36055 3.42733 8.19106 2.91836 7.95574 2.49796C7.7165 2.07056 7.44271 1.79351 7.14946 1.68176ZM5.6023 1.50701C5.94378 0.828378 6.76265 0.464216 7.50555 0.747312C8.11181 0.978337 8.53571 1.48675 8.82834 2.00952C9.12489 2.5393 9.32145 3.14522 9.44576 3.67233C9.62415 4.42875 9.48453 5.12377 9.17735 5.65192C8.87909 6.16472 8.39313 6.563 7.84693 6.6426C6.80439 6.79453 5.43013 5.99077 5.19287 4.24305C5.06802 3.32337 5.23428 2.23839 5.6023 1.50701Z" />
  <path d="M12.6907 1.80274C12.3355 1.97062 12.0017 2.33008 11.8476 2.75928C11.6133 3.41213 11.5804 4.12275 11.9972 4.77771C12.1956 5.08948 12.3753 5.24649 12.5141 5.32269C12.6452 5.39474 12.7606 5.40672 12.8697 5.38874C13.119 5.34765 13.3959 5.13462 13.6039 4.86582C13.6354 4.82509 13.6668 4.77061 13.706 4.68927C13.7204 4.65945 13.7348 4.62961 13.7492 4.59974C13.8655 4.35944 13.9828 4.11688 14.0737 3.86325C14.1756 3.57906 14.2289 3.32057 14.2137 3.09192C14.192 2.76518 13.9579 2.26203 13.5735 1.8984C13.333 1.67099 13.0297 1.64254 12.6907 1.80274ZM12.2635 0.898617C12.8842 0.605286 13.6539 0.598007 14.2606 1.1719C14.7883 1.67098 15.1698 2.39777 15.2115 3.02563C15.2396 3.44739 15.1396 3.85347 15.015 4.20081C14.9048 4.50815 14.7632 4.80049 14.649 5.03616C14.6345 5.0661 14.6205 5.09513 14.607 5.12316C14.5566 5.2278 14.4896 5.35525 14.3948 5.47779C14.1224 5.82976 13.6457 6.27432 13.0323 6.37543C12.7101 6.42854 12.3669 6.38277 12.0326 6.19918C11.706 6.01974 11.4135 5.72323 11.1535 5.31458C10.5193 4.31806 10.6049 3.26144 10.9064 2.4214C11.1464 1.75307 11.659 1.18427 12.2635 0.898617Z" />
  <path d="M17.6809 6.04621C17.5007 5.91767 17.2317 5.89108 16.9698 6.00071C16.4976 6.19832 16.0025 6.58528 15.8248 7.18311C15.6412 7.8004 15.7046 8.22074 15.8297 8.46804C15.9512 8.70832 16.1477 8.82666 16.3584 8.84523C16.6985 8.87521 17.0562 8.86118 17.3579 8.69638C17.6345 8.54529 17.9513 8.21835 18.1143 7.42891C18.1984 7.02206 18.1528 6.73097 18.0669 6.52401C17.9799 6.31413 17.8378 6.15805 17.6809 6.04621ZM16.5837 5.07824C17.1051 4.86005 17.7504 4.86756 18.2615 5.232C18.5443 5.43362 18.8203 5.73017 18.9907 6.14097C19.1622 6.5547 19.2132 7.05235 19.0937 7.63117C18.8855 8.63918 18.4276 9.25149 17.8373 9.57397C17.2721 9.88275 16.6707 9.87663 16.2706 9.84137C15.7087 9.79184 15.2116 9.46185 14.9373 8.91931C14.6665 8.3838 14.6317 7.68684 14.8662 6.8981C15.1592 5.91277 15.9478 5.34435 16.5837 5.07824Z" />
  <path d="M10.2255 15.5337L11.4477 16.756C12.4796 17.7879 14.1526 17.7879 15.1845 16.756C16.2164 15.7241 16.2164 14.051 15.1845 13.0191L10.2255 8.06003L5.26638 13.0191C4.23448 14.051 4.23448 15.7241 5.26638 16.756C6.29828 17.7879 7.97134 17.7879 9.00324 16.756L10.2255 15.5337ZM10.9326 7.35292L15.8916 12.312C17.3141 13.7344 17.3141 16.0406 15.8916 17.4631C14.4692 18.8855 12.163 18.8855 10.7406 17.4631L10.2255 16.948L9.71034 17.4631C8.28792 18.8855 5.9817 18.8855 4.55927 17.4631C3.13685 16.0406 3.13685 13.7344 4.55927 12.312L9.51834 7.35292C9.90887 6.9624 10.542 6.9624 10.9326 7.35292Z" />
</svg>

<svg xmlns="http://www.w3.org/2000/svg" class="icon icon-accordion icon-paw-print" viewBox="0 0 20 20"><path d="M4.344 7.164c-.328-.536-.752-.794-1.125-.769-.486.033-.761.187-.918.354-.16.171-.25.412-.26.713-.018.63.325 1.357.772 1.716.287.23.746.367 1.145.316.364-.045.636-.232.73-.647.114-.503-.022-1.157-.344-1.683m.852-.523c.428.698.65 1.618.467 2.427-.203.897-.877 1.33-1.58 1.419a2.62 2.62 0 0 1-1.896-.53C1.49 9.4 1.014 8.37 1.042 7.433c.014-.483.164-.978.53-1.367.367-.392.902-.622 1.58-.668.903-.06 1.622.555 2.044 1.244M7.15 1.682c-.232-.088-.527.022-.654.274-.268.532-.413 1.41-.312 2.153.169 1.243 1.072 1.61 1.519 1.544.165-.024.42-.177.61-.504.181-.311.278-.745.16-1.247-.112-.475-.282-.984-.517-1.404-.24-.427-.513-.704-.807-.816m-1.548-.175C5.944.828 6.762.464 7.506.747c.606.231 1.03.74 1.322 1.263.297.53.493 1.135.618 1.662.178.757.039 1.452-.269 1.98-.298.513-.784.911-1.33.99-1.043.153-2.417-.651-2.654-2.399-.125-.92.041-2.005.41-2.736M12.69 1.803a1.73 1.73 0 0 0-.842.956c-.235.653-.268 1.364.15 2.019.198.311.377.468.516.545a.53.53 0 0 0 .356.066c.249-.041.526-.254.734-.523a1 1 0 0 0 .102-.177l.043-.09a8 8 0 0 0 .325-.736c.102-.284.155-.542.14-.771-.022-.327-.256-.83-.64-1.194-.241-.227-.544-.255-.883-.095m-.426-.904c.62-.294 1.39-.301 1.997.273.527.499.909 1.226.95 1.854.029.421-.071.827-.196 1.175a9 9 0 0 1-.408.922c-.05.105-.117.232-.212.355-.273.352-.75.796-1.363.897a1.53 1.53 0 0 1-1-.176q-.488-.271-.879-.884c-.634-.997-.548-2.054-.247-2.894.24-.668.753-1.237 1.358-1.522M17.68 6.046c-.18-.128-.448-.155-.71-.045-.472.197-.967.584-1.145 1.182-.184.617-.12 1.038.005 1.285.121.24.318.359.528.377.34.03.698.016 1-.149.276-.15.593-.478.756-1.267.084-.407.039-.698-.047-.905a1.1 1.1 0 0 0-.386-.478m-1.096-.968c.521-.218 1.166-.21 1.678.154.282.202.558.498.729.909.171.414.222.911.103 1.49-.209 1.008-.666 1.62-1.257 1.943-.565.309-1.166.303-1.566.267a1.65 1.65 0 0 1-1.334-.922c-.27-.535-.305-1.232-.07-2.02.292-.986 1.08-1.555 1.717-1.82M10.226 15.534l1.222 1.222a2.642 2.642 0 1 0 3.736-3.737L10.227 8.06l-4.96 4.96a2.642 2.642 0 0 0 3.737 3.736zm.707-8.181 4.959 4.959a3.642 3.642 0 1 1-5.151 5.151l-.515-.515-.516.515a3.642 3.642 0 0 1-5.15-5.151l4.958-4.96a1 1 0 0 1 1.415 0"/></svg>
